X:276
T:no name
R:jig
Z:id:hn-jig-276
M:6/8
K:Dmix
AFA d2A|dfa gfe|fed e2d|B=cG EFG|
AFA d2A|dfa gfe|fed =cAG|Ad^c d3:|
|:~A3 ~G3|AFD FED|E2=c cBc|~G3 BAG|
~A3 ~G3|Add efg|fed =cAG|1 Ad^c d3:|2 Ad^c d2e||
|:f2d efg|aAB ^cde|f2d efg|age d2e|
~f3 ~g3|AdB =cde|fed =cAG|1 Ad^c d2e:|2 Ad^c d3||
